src/images/global/icons/social/youtube-fill.svg

<?xml version="1.0" encoding="UTF-8"?>
<svg width="48px" height="48px" viewBox="0 0 48 48" version="1.1" xmlns="http://www.w3.org/2000/svg" xmlns:xlink="http://www.w3.org/1999/xlink">
    <!-- Generator: Sketch 46.2 (44496) - http://www.bohemiancoding.com/sketch -->
    <title>icon/Social/youtube-fill</title>
    <desc>Created with Sketch.</desc>
    <defs>
        <path d="M16,0 C24.8366154,0 32,7.16338462 32,16 C32,24.8366154 24.8366154,32 16,32 C7.16338462,32 0,24.8366154 0,16 C0,7.16338462 7.16338462,0 16,0 Z M25.6244615,16.7272308 L25.6244615,15.2666154 C25.6244615,13.7089231 25.4324615,12.1512308 25.4324615,12.1512308 C25.4324615,12.1512308 25.2441538,10.8247692 24.6672308,10.2407692 C23.9350769,9.474 23.1146154,9.47030769 22.7386154,9.42538462 C20.0449231,9.23076923 16.0044615,9.23076923 16.0044615,9.23076923 L15.996,9.23076923 C15.996,9.23076923 11.9553846,9.23076923 9.26169231,9.42523077 C8.88538462,9.47015385 8.06538462,9.47384615 7.33307692,10.2406154 C6.756,10.8244615 6.568,12.1510769 6.568,12.1510769 C6.568,12.1510769 6.37553846,13.7087692 6.37553846,15.2664615 L6.37553846,16.7267692 C6.37553846,18.2847692 6.568,19.8421538 6.568,19.8421538 C6.568,19.8421538 6.756,21.1684615 7.33307692,21.7529231 C8.06538462,22.5196923 9.02723077,22.4956923 9.45553846,22.5758462 C10.9955385,22.7235385 16,22.7692308 16,22.7692308 C16,22.7692308 20.0447692,22.7632308 22.7386154,22.5686154 C23.1146154,22.5238462 23.9350769,22.5196923 24.6672308,21.7530769 C25.2441538,21.1689231 25.4324615,19.8426154 25.4324615,19.8426154 C25.4324615,19.8426154 25.6244615,18.2849231 25.6244615,16.7272308 Z M13.7152088,18.2084615 L13.7142857,12.8 L18.9153626,15.5136923 L13.7152088,18.2084615 Z" id="path-1"></path>
    </defs>
    <g id="Symbols" stroke="none" stroke-width="1" fill="none" fill-rule="evenodd">
        <g id="icon/Social/youtube-fill">
            <g id="Icon" transform="translate(8.000000, 8.000000)">
                <mask id="mask-2" fill="white">
                    <use xlink:href="#path-1"></use>
                </mask>
                <use id="Mask" fill="#384048" xlink:href="#path-1"></use>
                <g id="Color/Grayscale/Night-Sky" mask="url(#mask-2)" fill="#111111">
                    <g transform="translate(-8.000000, -8.000000)" id="Swatch">
                        <rect x="0" y="0" width="48" height="48"></rect>
                    </g>
                </g>
            </g>
        </g>
    </g>
</svg>

<?xml version="1.0" encoding="utf-8"?>
<!-- Generator: Adobe Illustrator 21.0.2, SVG Export Plug-In . SVG Version: 6.00 Build 0)  -->
<svg version="1.1" id="icon_x2F_Social_x2F_youtube-fill-Layer_1" xmlns="http://www.w3.org/2000/svg" xmlns:xlink="http://www.w3.org/1999/xlink" x="0px" y="0px"
	 viewBox="0 0 48 48" style="enable-background:new 0 0 48 48;" xml:space="preserve">
<title>icon/Social/youtube-fill</title>
<desc>Created with Sketch.</desc>
<g id="icon_x2F_Social_x2F_youtube-fill-Symbols">
	<g id="icon_x2F_Social_x2F_youtube-fill">
		<g id="icon_x2F_Social_x2F_youtube-fill-Icon" transform="translate(8.000000, 8.000000)">
			<g id="icon_x2F_Social_x2F_youtube-fill-Mask">
				<path id="icon_x2F_Social_x2F_youtube-fill-path-1_1_" style="fill:#384048;" d="M16,0c8.8,0,16,7.2,16,16s-7.2,16-16,16S0,24.8,0,16S7.2,0,16,0z M25.6,16.7v-1.5
					c0-1.6-0.2-3.1-0.2-3.1s-0.2-1.3-0.8-1.9c-0.7-0.8-1.6-0.8-1.9-0.8C20,9.2,16,9.2,16,9.2h0c0,0-4,0-6.7,0.2
					c-0.4,0-1.2,0-1.9,0.8c-0.6,0.6-0.8,1.9-0.8,1.9s-0.2,1.6-0.2,3.1v1.5c0,1.6,0.2,3.1,0.2,3.1s0.2,1.3,0.8,1.9
					c0.7,0.8,1.7,0.7,2.1,0.8c1.5,0.1,6.5,0.2,6.5,0.2s4,0,6.7-0.2c0.4,0,1.2,0,1.9-0.8c0.6-0.6,0.8-1.9,0.8-1.9
					S25.6,18.3,25.6,16.7z M13.7,18.2l0-5.4l5.2,2.7L13.7,18.2z"/>
			</g>
			<defs>
				<filter id="icon_x2F_Social_x2F_youtube-fill-Adobe_OpacityMaskFilter" filterUnits="userSpaceOnUse" x="-8" y="-8" width="48" height="48">
					<feColorMatrix  type="matrix" values="1 0 0 0 0  0 1 0 0 0  0 0 1 0 0  0 0 0 1 0"/>
				</filter>
			</defs>
			<mask maskUnits="userSpaceOnUse" x="-8" y="-8" width="48" height="48" id="icon_x2F_Social_x2F_youtube-fill-mask-2">
				<g style="filter:url(#icon_x2F_Social_x2F_youtube-fill-Adobe_OpacityMaskFilter);">
					<path id="icon_x2F_Social_x2F_youtube-fill-path-1" style="fill:#FFFFFF;" d="M16,0c8.8,0,16,7.2,16,16s-7.2,16-16,16S0,24.8,0,16S7.2,0,16,0z M25.6,16.7v-1.5
						c0-1.6-0.2-3.1-0.2-3.1s-0.2-1.3-0.8-1.9c-0.7-0.8-1.6-0.8-1.9-0.8C20,9.2,16,9.2,16,9.2h0c0,0-4,0-6.7,0.2
						c-0.4,0-1.2,0-1.9,0.8c-0.6,0.6-0.8,1.9-0.8,1.9s-0.2,1.6-0.2,3.1v1.5c0,1.6,0.2,3.1,0.2,3.1s0.2,1.3,0.8,1.9
						c0.7,0.8,1.7,0.7,2.1,0.8c1.5,0.1,6.5,0.2,6.5,0.2s4,0,6.7-0.2c0.4,0,1.2,0,1.9-0.8c0.6-0.6,0.8-1.9,0.8-1.9
						S25.6,18.3,25.6,16.7z M13.7,18.2l0-5.4l5.2,2.7L13.7,18.2z"/>
				</g>
			</mask>
			<g id="icon_x2F_Social_x2F_youtube-fill-Color_x2F_Grayscale_x2F_Night-Sky" style="mask:url(#icon_x2F_Social_x2F_youtube-fill-mask-2);">
				<g id="icon_x2F_Social_x2F_youtube-fill-Swatch" transform="translate(-8.000000, -8.000000)">
					<rect style="fill:#111111;" width="48" height="48"/>
				</g>
			</g>
		</g>
	</g>
</g>
</svg>
